src/images/dist/icons/stage-icon-4.svg

<svg width="22" height="26" viewBox="0 0 22 26" fill="none" xmlns="http://www.w3.org/2000/svg">
<path d="M5.06845 19.6377H4.16406" stroke="#211E1E" stroke-linecap="round"/>
<path d="M17.5577 19.5645H7.21094" stroke="#211E1E" stroke-linecap="round"/>
<path d="M5.06845 15.2505H4.16406" stroke="#211E1E" stroke-linecap="round"/>
<path d="M17.7342 15.2505H7.21094" stroke="#211E1E" stroke-linecap="round"/>
<path d="M5.06845 11.2871H4.16406" stroke="#211E1E" stroke-linecap="round"/>
<path d="M17.5577 11.2871H7.21094" stroke="#211E1E" stroke-linecap="round"/>
<path d="M13.6614 0.94043V7.72333C13.6614 7.97305 13.8639 8.17552 14.1136 8.17552H20.8965M20.8906 7.69484C20.8884 7.65522 20.8806 7.6161 20.8676 7.57863C20.8626 7.56416 20.859 7.55014 20.8526 7.53612C20.8307 7.48694 20.8 7.44206 20.7622 7.40363L14.4315 1.07292C14.3931 1.03511 14.3482 1.00447 14.299 0.982484C14.285 0.976153 14.271 0.972535 14.257 0.967561C14.2191 0.954561 14.1797 0.946647 14.1398 0.944047C14.1321 0.945404 14.1236 0.94043 14.1136 0.94043H1.45219C1.20247 0.94043 1 1.1429 1 1.39262V2.7492V24.9067C1 25.1564 1.20247 25.3589 1.45219 25.3589H18.1833H20.4443C20.694 25.3589 20.8965 25.1564 20.8965 24.9067V7.72333C20.8965 7.71338 20.8915 7.70479 20.8906 7.69484Z" stroke="#211E1E"/>
<path d="M4.21094 8.12682V5.50928H6.82848V8.12682H4.21094Z" stroke="#211E1E"/>
</svg>

<svg width="22" height="26" fill="none" xmlns="http://www.w3.org/2000/svg"><path d="M5.068 19.638h-.904m13.394-.074H7.21M5.068 15.25h-.904m13.57 0H7.211m-2.143-3.963h-.904m13.394 0H7.21" stroke="#211E1E" stroke-linecap="round"/><path d="M13.661.94v6.783c0 .25.203.453.453.453h6.782m-.005-.481a.427.427 0 00-.023-.116c-.005-.015-.009-.029-.015-.043a.45.45 0 00-.09-.132L14.43 1.073a.451.451 0 00-.132-.09c-.014-.007-.028-.01-.042-.015a.452.452 0 00-.117-.024c-.008.001-.016-.004-.026-.004H1.452A.452.452 0 001 1.393v23.514c0 .25.202.452.452.452h18.992c.25 0 .453-.203.453-.452V7.723c0-.01-.005-.018-.006-.028z" stroke="#211E1E"/><path d="M4.21 8.127V5.509h2.618v2.618H4.211z" stroke="#211E1E"/></svg>
